X:1
T:Joy Upon This Earth
M:4/4
L:1/4
K:F
 C| F3/4 G/4 A3/4 B/4 c- f3/4 e/4| d3/4 e/4 f3/4 d/4 c B| A3/4 B/4 c3/4 d/4 c A3/4 A/4|\
 B3/4 c/4 d3/4 B/4 G| z| F F A F| f B c|
